X: 19765
T: Jenny's Folly
R: reel
M: 4/4
K: Dmixolydian
|:AD D2 ADEF|GcAG EFGE|AD D2 cDBD|AcGE c2Bc|
AD D2 AGEF|G3c d2cd|ecdB cAGE|AcGE ED D2:|
|:ADcD BDAD|cDEc dcAG|cdec dA A2|GEGc A3e|
eA A2 dcAG|cEAG EAGE|ecdB cAGE|AcGE ED D2:|

